src/categories-icons-sprite/categories/svg-cat-sport-trainer.svg

<svg width="33" height="33" viewBox="0 0 33 33" fill="none" xmlns="http://www.w3.org/2000/svg">
<path class="p-47568C" d="M27.1992 0V29.1328H21.334V7.79883H19.4004L16.5 6.58066L15.5332 6.17455L13.5996 7.79883H11.666V29.1328H5.80078V0H11.666V1.93359H13.5996C13.6383 1.99154 15.3012 2.43633 16.5 2.95833C16.7707 3.07435 17.0415 3.2097 17.2348 3.32572L19.4004 1.93359H21.334V0H27.1992Z" fill="#58ADE5"/>
<path class="p-2C3B73" d="M27.1992 0V29.1328H21.334V7.79883H19.4004L16.5 6.58066V2.95833C16.7707 3.07435 17.0415 3.2097 17.2348 3.32572L19.4004 1.93359H21.334V0H27.1992Z" fill="#4D98CB"/>
<path class="p-D8D8FC" d="M17.4668 6.83203H15.5332V10.6992H17.4668V6.83203Z" fill="#A1D1FD"/>
<path class="p-D8D8FC" d="M17.4668 12.6328H15.5332V18.4336H17.4668V12.6328Z" fill="#A1D1FD"/>
<path class="p-47568C" d="M14.4912 21.334V29.1328H18.5082V21.334H14.4912Z" fill="#58ADE5"/>
<path class="p-61729B" d="M13.5996 1.93359V7.79883H19.4004V1.93359H13.5996Z" fill="#B9DFFC"/>
<path class="p-61729B" d="M31.0664 32.0332V32.0718H1.93359V32.0332C1.93359 29.3648 4.09922 27.1992 6.76758 27.1992H26.2324C28.9008 27.1992 31.0664 29.3648 31.0664 32.0332Z" fill="#B9DFFB"/>
<path class="p-A3A3D1" d="M17.4668 6.83203H16.5V10.6992H17.4668V6.83203Z" fill="#58ADE5"/>
<path class="p-A3A3D1" d="M17.4668 12.6328H16.5V18.4336H17.4668V12.6328Z" fill="#58ADE5"/>
<path class="p-2C3B73" d="M18.5085 21.334H16.5V29.1328H18.5085V21.334Z" fill="#4D98CB"/>
<path class="p-47568C" d="M19.4004 1.93359H16.5V7.79883H19.4004V1.93359Z" fill="#76B7E2"/>
<path class="p-47568C" d="M31.0664 32.0332V32.0718H16.5V27.1992H26.2324C28.9008 27.1992 31.0664 29.3648 31.0664 32.0332Z" fill="#5FBEFF"/>
<path class="p-F2F2FC" d="M32.9033 16.152C32.7294 16.6354 32.4006 17.0413 31.9365 17.2541C31.666 17.3893 31.3757 17.4668 31.0665 17.4668C30.3317 17.4668 29.6743 17.0607 29.3262 16.4033L27.934 13.5996H5.06607L3.65455 16.4033C3.44185 16.8674 3.03592 17.196 2.55253 17.3701C2.33964 17.4281 2.14634 17.4668 1.93365 17.4668C1.62447 17.4668 1.3341 17.4087 1.06359 17.2541C0.599531 17.0413 0.270756 16.6354 0.0967971 16.152C-0.0580193 15.6492 -0.0192829 15.1271 0.212748 14.6631L2.14634 10.7959C2.47512 10.1384 3.13247 9.73242 3.86724 9.73242H29.1329C29.8676 9.73242 30.525 10.1384 30.8732 10.7959L32.7874 14.6631C33.0194 15.1271 33.0581 15.6492 32.9033 16.152Z" fill="#B9DFFC"/>
<path class="p-D8D8FC" d="M32.9033 16.152C32.7293 16.6354 32.4005 17.0413 31.9365 17.2541C31.6659 17.3893 31.3757 17.4668 31.0664 17.4668C30.3316 17.4668 29.6743 17.0607 29.3261 16.4033L27.934 13.5996H16.5V9.73242H29.1328C29.8676 9.73242 30.5249 10.1384 30.8731 10.7959L32.7874 14.6631C33.0193 15.1271 33.0581 15.6492 32.9033 16.152Z" fill="#A1D1FD"/>
<path class="p-FF8597" d="M20.3672 17.4668H12.6328C11.0278 17.4668 9.73242 19.6541 9.73242 21.2591V23.2676H23.2676V21.2591C23.2676 19.6541 21.9722 17.4668 20.3672 17.4668Z" fill="#B9DFFB"/>
<path class="p-FF637B" d="M23.2676 21.2591V23.2676H16.5V17.4668H20.3672C21.9722 17.4668 23.2676 19.6541 23.2676 21.2591Z" fill="#5FBEFF"/>
<path class="p-47568C" d="M33 31.0664H0V33H33V31.0664Z" fill="#58ADE5"/>
<path class="p-2C3B73" d="M33 31.0664H16.5V33H33V31.0664Z" fill="#4D98CB"/>
</svg>

<svg width="33" height="33" fill="none" xmlns="http://www.w3.org/2000/svg"><path class="p-47568C" d="M27.2 0v29.133h-5.866V7.799H19.4L16.5 6.58l-.967-.406L13.6 7.799h-1.934v21.334H5.801V0h5.865v1.934H13.6c.038.058 1.701.502 2.9 1.024.27.116.541.252.735.368L19.4 1.934h1.934V0h5.865z" fill="#58ADE5"/><path class="p-2C3B73" d="M27.2 0v29.133h-5.866V7.799H19.4L16.5 6.58V2.958c.27.116.541.252.735.368L19.4 1.934h1.934V0h5.865z" fill="#4D98CB"/><path class="p-D8D8FC" d="M17.467 6.832h-1.934v3.867h1.934V6.832zM17.467 12.633h-1.934v5.8h1.934v-5.8z" fill="#A1D1FD"/><path class="p-47568C" d="M14.491 21.334v7.799h4.017v-7.799h-4.017z" fill="#58ADE5"/><path class="p-61729B" d="M13.6 1.934v5.865h5.8V1.934h-5.8z" fill="#B9DFFC"/><path class="p-61729B" d="M31.066 32.033v.039H1.934v-.039A4.836 4.836 0 016.768 27.2h19.464a4.836 4.836 0 014.834 4.834z" fill="#B9DFFB"/><path class="p-A3A3D1" d="M17.467 6.832H16.5v3.867h.967V6.832zM17.467 12.633H16.5v5.8h.967v-5.8z" fill="#58ADE5"/><path class="p-2C3B73" d="M18.509 21.334H16.5v7.799h2.009v-7.799z" fill="#4D98CB"/><path class="p-47568C" d="M19.4 1.934h-2.9v5.865h2.9V1.934z" fill="#76B7E2"/><path class="p-47568C" d="M31.066 32.033v.039H16.5v-4.873h9.732a4.836 4.836 0 014.834 4.834z" fill="#5FBEFF"/><path class="p-F2F2FC" d="M32.903 16.152c-.174.483-.502.89-.966 1.102a1.93 1.93 0 01-.87.213 1.961 1.961 0 01-1.74-1.064L27.933 13.6H5.066l-1.411 2.803c-.213.464-.62.793-1.102.967a2.294 2.294 0 01-.62.097c-.309 0-.599-.058-.87-.213-.463-.213-.792-.619-.966-1.102a1.985 1.985 0 01.116-1.489l1.933-3.867a1.91 1.91 0 011.721-1.064h25.266c.735 0 1.392.406 1.74 1.064l1.914 3.867c.232.464.271.986.116 1.489z" fill="#B9DFFC"/><path class="p-D8D8FC" d="M32.903 16.152c-.174.483-.502.89-.966 1.102a1.93 1.93 0 01-.87.213 1.961 1.961 0 01-1.74-1.064L27.933 13.6H16.5V9.732h12.633c.735 0 1.392.406 1.74 1.064l1.914 3.867c.232.464.271.986.116 1.489z" fill="#A1D1FD"/><path class="p-FF8597" d="M20.367 17.467h-7.734c-1.605 0-2.9 2.187-2.9 3.792v2.009h13.535v-2.009c0-1.605-1.296-3.792-2.9-3.792z" fill="#B9DFFB"/><path class="p-FF637B" d="M23.268 21.26v2.008H16.5v-5.801h3.867c1.605 0 2.9 2.187 2.9 3.792z" fill="#5FBEFF"/><path class="p-47568C" d="M33 31.066H0V33h33v-1.934z" fill="#58ADE5"/><path class="p-2C3B73" d="M33 31.066H16.5V33H33v-1.934z" fill="#4D98CB"/></svg>
